icon/ir/pharmacy-circled-cross.svg

<svg stroke-width="1.5" viewBox="0 0 24 24" fill="none" xmlns="http://www.w3.org/2000/svg" height="1em" width="1em">
  <path d="M13.9 18H10.1C9.76863 18 9.5 17.7314 9.5 17.4V15.1C9.5 14.7686 9.23137 14.5 8.9 14.5H6.6C6.26863 14.5 6 14.2314 6 13.9V10.1C6 9.76863 6.26863 9.5 6.6 9.5H8.9C9.23137 9.5 9.5 9.23137 9.5 8.9V6.6C9.5 6.26863 9.76863 6 10.1 6H13.9C14.2314 6 14.5 6.26863 14.5 6.6V8.9C14.5 9.23137 14.7686 9.5 15.1 9.5H17.4C17.7314 9.5 18 9.76863 18 10.1V13.9C18 14.2314 17.7314 14.5 17.4 14.5H15.1C14.7686 14.5 14.5 14.7686 14.5 15.1V17.4C14.5 17.7314 14.2314 18 13.9 18Z" stroke="currentColor" stroke-width="1.5"/>
  <path d="M12 22C17.5228 22 22 17.5228 22 12C22 6.47715 17.5228 2 12 2C6.47715 2 2 6.47715 2 12C2 17.5228 6.47715 22 12 22Z" stroke="currentColor" stroke-linecap="round" stroke-linejoin="round"/>
</svg>

<svg width="24" height="24" stroke-width="1.5" fill="none" xmlns="http://www.w3.org/2000/svg"><path d="M13.9 18h-3.8a.6.6 0 0 1-.6-.6v-2.3a.6.6 0 0 0-.6-.6H6.6a.6.6 0 0 1-.6-.6v-3.8a.6.6 0 0 1 .6-.6h2.3a.6.6 0 0 0 .6-.6V6.6a.6.6 0 0 1 .6-.6h3.8a.6.6 0 0 1 .6.6v2.3a.6.6 0 0 0 .6.6h2.3a.6.6 0 0 1 .6.6v3.8a.6.6 0 0 1-.6.6h-2.3a.6.6 0 0 0-.6.6v2.3a.6.6 0 0 1-.6.6Z" stroke="currentColor"/><path d="M12 22c5.523 0 10-4.477 10-10S17.523 2 12 2 2 6.477 2 12s4.477 10 10 10Z" stroke="currentColor" stroke-linecap="round" stroke-linejoin="round"/></svg>
